X:1
T: After the Hare
C:
R:Reel
I:speed 232
Q:232
K:A
M:4/4
L:1/8
|:EA cA eA cA|EA ce dB B2|EA cA eA cA|af ed cA BG|
EA cA eA cA|EA ce dB Bg|ag ae fa ec|1df ed cA A2:|2df ed cA Ae|
|:ag ae fe fg|af ec dB Be|ag ae fa ec|dB ed cA Ae|
ag ae fa ec|dB cA BA F2|EA AB cA af|1ec Bc A2e2:|2ec Bc A2||
